X:399
T:Reel 399
M:4/4
K:Gmaj
L:1/8
dc|BGG2 dBGB|DGBd cBAG|BdGd BGGB|cBAB cedc|BGBG dGBG|BGdB c2Bc| (3def eg fadB|cedc BGG|d|gfga gdBg|gfge fgaf|gfgd BGGB|cAdc BGGc|gfgd BGGd|gabg agef|gfga bgag|fdec BGG|c|Bdgd BGGd|gdfg eAAc|BGDG BcdB|cedc BGGA|BGDG BGdB|ABcd eAAc|Bdef gage|dBAc BGG|
